X:1
T:Alfreton, LM
T:Alfreton, LM
T:Supplement to New Version, 1708
T:Public Domain Courtesy of the Cyber Hymnal™
C:Supplement to New Version, 1708
Z:Public Domain
Z:Courtesy of the Cyber Hymnal™
%%score ( 1 2 ) ( 3 4 )
L:1/8
Q:1/4=113
M:none
K:G
V:1 treble 
V:2 treble 
V:3 bass 
V:4 bass 
V:1
 [DG]4 [GB]2 [Gc]2 | [DA]2 [FB]2 [EG]2 [^CA]2 | !fermata![DF]2 [FA]2 [GB]2 [E^c]2 | %3
 [Dd]2 [DA]2 [DB]2 (AG) | !fermata![DF]2 [DA]2 [Dd]2 [EB]2 | [Ec]2 B2 [EA]2 [EG]2 | %6
 !fermata![DF]2 [DA]2 [GB]2 c2 | [Dd]2 [EG]2 G3 z F | [DG]8 |] %9
V:2
 x8 | x8 | x8 | x6 ^C2 | x8 | x2 (GF) x4 | x6 (FE) | x4 D2 D2 x | x8 |] %9
V:3
 [G,,B,]4 [G,D]2 [E,C]2 | [F,D]2 [D,D]2 [E,B,]2 [A,,A,]2 | !fermata![D,A,]2 [D,D]2 [G,D]2 [G,A,]2 | %3
 [F,A,]2 [D,F,]2 [G,,E,]2 [A,,A,]2 | !fermata![D,A,]2 [D,F,]2 [B,,F,]2 [E,^G,]2 | %5
 [A,,A,]2 [B,,D]2 [C,C]2 [A,,C]2 | !fermata![D,A,]2 [F,,D]2 [G,,D]2 [A,,C]2 | %7
 [B,,G,]2 (CB,) [D,A,]2 [D,A,]2 x | [G,,B,]8 |] %9
V:4
 x8 | x8 | x8 | x8 | x8 | x8 | x8 | x2 C,2 x5 | x8 |] %9

